X:224
T:In The Gravel Yard
C:arranged by Lee Marcus
N:Transcribed by Lee Marcus
R:bluegrass
L:1/8
Q:1/4=222
M:4/4
K:B
z2 B,=D EF =AF | =AB FA B=d e=f | f2 f=a f=f e=d | e2 e=d e=f ed | e=d BF =AB de | 
f2 ef f=a fa | b=a fe =dc de | =dB BF =AB de | B2 {=A,}B,E =AB, Ec | B,E =dE dc Bd | 
e=f ^f=a =fe =d^f | eB =d/e/e e2 ef | =fe =dB =AB dd | zc B=A BA FE | FB F=F E=D E^F | 
B=d B=A F=F E=D | B,=A, B,E =DB, B,A, | B,8 | 


